!!!COM: Vivaldi, Antonio Lucio
!!!CDT: 1678/03/04-1741/08/28
!!!OPR: 12 Sonatas for Violin and Basso continuo
!!!OTL: Sonata in D minor, op. @{OPS}, no. @{ONM} (@{SCT})
!!!OPS: 2
!!!ONM: 3
!!!OMV: 3. [Adagio]
!!!SCT: RV 14
!!!SCA: Antonio Vivaldi: Thematisch-systematisches Verzeichnis seiner Werke (Ryom-Verzeichnis)
!!!OMD: Adagio
!!!key: d
**kern	**fb	**kern
*part2	*	*part1
*staff2	*	*staff1
*ICklav	*	*ICstr
*Icemba	*	*Ivioln
*I"Basso continuo	*	*I"Violino
*I'bc	*	*I'v
*clefF4	*	*clefG2
*k[b-]	*	*k[b-]
*d:	*	*d:
*M4/4	*	*M4/4
*met(c)	*	*met(c)
*MM40	*	*MM40
=1	=1	=1
8d\L	.	1r
8d\	.	.
8e\	6#/	.
8e\J	.	.
8f\L	6	.
8f\	.	.
8c#X\	6	.
8c#y\J	.	.
=2	=2	=2
8d\L	9	[4aa\
8d\J	8	.
8cn\L	6	16aa\LL]
.	.	16gg\
8c\J	.	16ff\
.	.	16ee\JJ
8B-y\L	7 5	4.dd\
8B-y\	.	.
8A\	6 4	.
8A\J	.	8dd\
=3	=3	=3
8G\L	.	8bb-y\L
8C#y\J	6	16ee\L
.	.	16bb-y\JJ
8C#y/L	.	8.aa\L
8C#y/J	.	.
.	.	16gg\Jk
8D\L	.	16ff\LL
.	.	16ee\J
8D\J	.	8dd\J
8D\L	.	8r
8D\J	.	(16aa\LL
.	.	16dd\JJ)
!!LO:LB:g=original
=4	=4	=4
8F#X\L	6	8dd\L
8F#y\J	.	(16aa\L
.	.	16cc\JJ)
8D\L	7 #	8cc\L
8D\J	.	8cc\J
8G\L	4	(8cc\LT
8G\J	n	8bn\J)
8F\L	4nr 2	8r
8F\J	.	(16gg\LL
.	.	16cc\JJ)
=5	=5	=5
8E\L	6	8cc\L
8E\J	.	(16gg\L
.	.	16b-X\JJ)
8C/L	7	8b-y\L
8C/J	.	8b-y\J
8F\L	4	(8b-y/LT
8F\J	3	8a/J)
8F\L	.	8r
8F\J	.	(16ff\LL
.	.	16dd\JJ)
=6	=6	=6
8G\L	6-r	8ee-X\L
8G\J	.	(16bb-y\L
.	.	16gg\JJ)
8G\L	.	16ee-X\LL
.	.	16gg\
8G\J	.	16aa\
.	.	16bb-y\JJ
8A\L	#	4cc#X\
8A\J	.	.
8G\L	4#| 2	16r
.	.	16cc#y\LL
8G\J	.	16bn\
.	.	16a\JJ
=7	=7	=7
8F\L	6	8.aa\L
8F\J	.	.
.	.	(16gg\Jk
8F\L	.	16ff\LL
.	.	16ee\
8F\J	.	16dd\
.	.	16cc\JJ)
8G\L	n	8bn\L
8G\J	.	(16cc\L
.	.	16dd\JJ
8G\L	.	16ee\LL
.	.	16ff\
8G\J	.	16gg\
.	.	16bn\JJ)
!!LO:LB:g=original
=8	=8	=8
8A\L	#	8cc#X\L
8A\J	.	(16dd\L
.	.	16ee\JJ
8A\L	.	16ff\LL
.	.	16gg\
8A\J	.	16aa\
.	.	16cc#X\JJ)
8B-y\L	5	8dd\L
8B-y\J	.	(16ee\L
.	.	16ff\JJ
8B-y\L	6	16gg\LL
.	.	16aa\
8B-y\J	.	16bb-y\
.	.	16dd\JJ)
=9	=9	=9
8A\L	#	(24cc#X\LL
.	.	24bn\
.	.	24a\J)
8D\J	.	(24ff\L
.	.	24ee\
.	.	24dd\JJ)
8A\L	#	8.cc#X\Lt
8AA\J	.	.
.	.	16dd\Jk
8D\L	.	[2dd\
8D\	.	.
8E\	.	.
8E\J	.	.
=10	=10	=10
8F\L	6	8.dd\L]
8F\J	.	.
.	.	16ff\Jk
8C#X/L	6	16ee\LL
.	.	16a\
8C#y/J	.	16g\
.	.	16gg\JJ
8D\L	.	8ff\L
8G\J	6 5	16ee\L
.	.	16dd\JJ
8A\L	5 4	8.cc#X\Lt
8AA\J	#	.
.	.	16dd\Jk
=11	=11	=11
1D\;	.	1dd\;
==	==	==
*-	*-	*-
!!!SMS: RV 14 / Estienne Roger, Amsterdam [facs.]
!!!ENC: Fran Bennion; rev. 04/21 E. Correia
!!!END: 2004/11/22
!!!ONB: Converted from MuseData with musedata2hum on Sat May 11 12:07:51 2024
!!!YEM: (C) 2004, 2004 Center for Computer Assisted Research in the Humanities.
!!!system-decoration: [(s1,s2)]
!!!URL-info: https://wiki.ccarh.org/wiki/MuseData:_Antonio_Vivaldi#Op._2:_Sonate_a_violino_e_basso_per_il_cembalo
!!!URL-pdf: https://pdf.musedata.org/vivaldi-op02-no03.pdf#page=3 MuseData edition
!!!URL-pdf: http://conquest.imslp.info/files/imglnks/usimg/b/b7/IMSLP99075-PMLP183164-Vivaldi_-_Sonatas_Op2.pdf#page=11 Estienne Roger Amsterdam: Estienne Roger, No.2, n.d.[1711].
!!!URL-youtube: https://www.youtube.com/watch?v=SiijZmW9jKM&t=780s L'Arte dell'Arco
!!!title: @{OTL}, mov. @{OMV}
!!!filter-chint: chint -mid
!!!EEV: 2024/05/11
!!!source-file: https://bitbucket.org/musedata/vivaldi/src/master/roger/op2/no03/stage2/03/01
!!!source-file: https://bitbucket.org/musedata/vivaldi/src/master/roger/op2/no03/stage2/03/02
